X: 1
T: Srbijanka  [F C G]
O: Serbia
Z: 2009 John Chambers <jc:trillian.mit.edu>
Q: 1/4 "=100-112"
M: 2/4
L: 1/16
K: F
|::: "F"c4- c=Bcd | "C"_B4- BABc |1,3 "F"A2F2 "C"G2A2 :|2,4 "F"A2F2 "C"G4 :|
K: C=B
|::: "C"G4 cBAG | "G"F2E2 F2GF |1,3 "C"E2C2 "G"D2E2 :|2,4 "C"E2C2 "G"HD4 :|
K: G
[| "G"G4 D4 | D2ED B,2D2 | "G"G4 D4 | D2ED B,4 |]


%%sep 3 1 500

%%sep 1 1 500

